resources/svg/house.svg

<svg xmlns="http://www.w3.org/2000/svg" viewBox="0 0 15 15" fill="currentColor"><path fill-rule="evenodd" clip-rule="evenodd" d="M7.79062 0.0931333C7.61677 -0.0310444 7.38323 -0.0310444 7.20938 0.0931333L0.209381 5.09313C0.0779828 5.18699 0 5.33852 0 5.5V14.5C0 14.7761 0.223858 15 0.5 15H2V8H7V15H14.5C14.7761 15 15 14.7761 15 14.5V5.5C15 5.33852 14.922 5.18699 14.7906 5.09313L14 4.52841V2H13V3.81412L7.79062 0.0931333ZM11 12V8H12V12H11Z" fill="black"/><path d="M6 15V12H5V11H6V9H3V15H6Z" fill="black"/></svg>

<svg xmlns="http://www.w3.org/2000/svg" viewBox="0 0 15 15" fill="currentColor"><path fill-rule="evenodd" clip-rule="evenodd" d="M7.79.093a.5.5 0 00-.58 0l-7 5A.5.5 0 000 5.5v9a.5.5 0 00.5.5H2V8h5v7h7.5a.5.5 0 00.5-.5v-9a.5.5 0 00-.21-.407L14 4.528V2h-1v1.814L7.79.094zM11 12V8h1v4h-1z" fill="currentColor"/><path d="M6 15v-3H5v-1h1V9H3v6h3z" fill="currentColor"/></svg>
